;FLAVOR:Marlin
;TIME:3426
;Filament used: 1.7582m
;Layer height: 0.175
;Generated with Cura_SteamEngine 3.1.0
M190 S60
M104 S200
M109 S200
M82 ; absolute extrusion mode
G21       ;metric values
G90       ;absolute positioning
M82       ;set extruder to absolute mode
M107      ;start with the fan off
G28       ;home
G1 Z15.0 F840
G92 E0    ;zero the extruded length
G1 F200 E3              ;extrude 3mm of feed stock
G92 E0                  ;zero the extruded length again
G1 F840
M117 Printing...
;LAYER_COUNT:29
;LAYER:0
M107
G0 F1470 X72.694 Y67.295 Z0.3
;TYPE:SKIRT
G1 X73.167 Y66.822 E0.03337
G1 X73.693 Y66.408 E0.06677
G1 X74.265 Y66.06 E0.10017
G1 X74.873 Y65.783 E0.1335
G1 X75.511 Y65.581 E0.16689
G1 X76.168 Y65.456 E0.20026
G1 X76.915 Y65.41 E0.2376
G1 X85.003 Y65.455 E0.64111
G1 X107.178 Y65.401 E1.74743
G1 X107.253 Y65.401 E1.75118
G1 X112.187 Y65.455 E1.99735
G1 X120.084 Y65.41 E2.39134
G1 X120.752 Y65.446 E2.42471
G1 X121.411 Y65.562 E2.4581
G1 X122.052 Y65.755 E2.49149
G1 X122.665 Y66.024 E2.52489
G1 X123.241 Y66.363 E2.55824
G1 X123.773 Y66.769 E2.59162
G1 X124.253 Y67.235 E2.625
G1 X124.673 Y67.756 E2.65839
G1 X125.029 Y68.322 E2.69175
G1 X125.326 Y68.956 E2.72667
G1 X126.943 Y73.059 E2.9467
G1 X129.149 Y77.93 E3.21347
G1 X131.633 Y82.679 E3.48085
G1 X132.956 Y84.97 E3.61284
G1 X134.87 Y88.053 E3.79388
G1 X135.188 Y88.642 E3.82728
G1 X135.434 Y89.264 E3.86065
G1 X135.604 Y89.911 E3.89402
G1 X135.695 Y90.574 E3.92741
G1 X135.712 Y91.006 E3.94898
G1 X135.713 Y105.992 E4.69664
G1 X135.673 Y106.659 E4.72997
G1 X135.554 Y107.318 E4.76338
G1 X135.357 Y107.957 E4.79674
G1 X135.085 Y108.569 E4.83015
G1 X134.89 Y108.914 E4.84993
G1 X132.24 Y113.246 E5.10328
G1 X129.705 Y117.94 E5.36943
G1 X127.416 Y122.819 E5.63831
G1 X126.424 Y125.187 E5.76639
G1 X126.422 Y125.192 E5.76666
G1 X125.344 Y127.998 E5.91663
G1 X125.067 Y128.607 E5.95001
G1 X124.719 Y129.179 E5.98341
G1 X124.306 Y129.705 E6.01678
G1 X123.833 Y130.178 E6.05015
G1 X123.307 Y130.592 E6.08354
G1 X122.735 Y130.94 E6.11695
G1 X122.127 Y131.217 E6.15028
G1 X121.489 Y131.419 E6.18367
G1 X120.832 Y131.544 E6.21703
G1 X120.106 Y131.59 E6.25333
G1 X94.892 Y131.545 E7.51126
G1 X89.774 Y131.6 E7.76661
G1 X89.674 Y131.6 E7.7716
G1 X82.023 Y131.545 E8.15332
G1 X76.935 Y131.59 E8.40717
G1 X76.267 Y131.556 E8.44054
G1 X75.608 Y131.442 E8.47391
G1 X74.967 Y131.251 E8.50728
G1 X74.353 Y130.984 E8.54068
G1 X73.775 Y130.647 E8.57406
G1 X73.242 Y130.242 E8.60746
G1 X72.761 Y129.778 E8.6408
G1 X72.339 Y129.259 E8.67417
G1 X71.982 Y128.693 E8.70756
G1 X71.705 Y128.116 E8.73949
G1 X68.977 Y121.468 E9.098
G1 X66.643 Y116.681 E9.3637
G1 X64.032 Y112.013 E9.63054
G1 X62.131 Y108.949 E9.81044
G1 X61.812 Y108.36 E9.84386
G1 X61.567 Y107.738 E9.87721
G1 X61.397 Y107.091 E9.91058
G1 X61.306 Y106.428 E9.94397
G1 X61.289 Y105.996 E9.96554
G1 X61.289 Y91 E10.71369
G1 X61.329 Y90.332 E10.74708
G1 X61.448 Y89.674 E10.78044
G1 X61.645 Y89.034 E10.81385
G1 X61.917 Y88.423 E10.84721
G1 X62.156 Y88.008 E10.87111
G1 X63.368 Y86.09 E10.9843
G1 X66.057 Y81.431 E11.25267
G1 X68.476 Y76.633 E11.52075
G1 X70.592 Y71.772 E11.78525
G1 X71.656 Y69.002 E11.93329
G1 X71.933 Y68.393 E11.96667
G1 X72.281 Y67.821 E12.00007
G1 X72.694 Y67.295 E12.03343
G0 X73.04 Y67.508
G1 X73.503 Y67.059 E12.06561
G1 X74.018 Y66.671 E12.09778
G1 X74.577 Y66.35 E12.12994
G1 X75.171 Y66.1 E12.16209
G1 X75.792 Y65.926 E12.19427
G1 X76.43 Y65.83 E12.22646
G1 X76.913 Y65.81 E12.25057
G1 X85.002 Y65.855 E12.65414
G1 X107.179 Y65.801 E13.76056
G1 X107.249 Y65.801 E13.76405
G1 X112.186 Y65.855 E14.01037
G1 X120.087 Y65.81 E14.40456
G1 X120.73 Y65.846 E14.43669
G1 X121.364 Y65.962 E14.46885
G1 X121.979 Y66.155 E14.50101
G1 X122.566 Y66.423 E14.5332
G1 X123.115 Y66.762 E14.56539
G1 X123.617 Y67.165 E14.59751
G1 X124.066 Y67.628 E14.62968
G1 X124.454 Y68.143 E14.66185
G1 X124.776 Y68.702 E14.69404
G1 X124.954 Y69.103 E14.71593
G1 X126.572 Y73.208 E14.93606
G1 X128.788 Y78.101 E15.20404
G1 X131.295 Y82.895 E15.47394
G1 X132.607 Y85.165 E15.60475
G1 X134.53 Y88.264 E15.78671
G1 X134.836 Y88.832 E15.8189
G1 X135.068 Y89.433 E15.85104
G1 X135.225 Y90.058 E15.88319
G1 X135.312 Y91.006 E15.93068
G1 X135.313 Y105.992 E16.67834
G1 X135.273 Y106.635 E16.71048
G1 X135.154 Y107.269 E16.74266
G1 X134.957 Y107.883 E16.77483
G1 X134.549 Y108.705 E16.82061
G1 X131.893 Y113.047 E17.07455
G1 X129.35 Y117.756 E17.34155
G1 X127.047 Y122.664 E17.61203
G1 X126.049 Y125.046 E17.74088
G1 X126.048 Y125.049 E17.74104
G1 X124.97 Y127.855 E17.891
G1 X124.702 Y128.441 E17.92315
G1 X124.364 Y128.99 E17.95532
G1 X123.96 Y129.492 E17.98746
G1 X123.497 Y129.941 E18.01964
G1 X122.982 Y130.329 E18.05181
G1 X122.423 Y130.65 E18.08397
G1 X121.829 Y130.9 E18.11612
G1 X121.208 Y131.074 E18.1483
G1 X120.57 Y131.17 E18.18049
G1 X120.107 Y131.19 E18.20361
G1 X94.889 Y131.145 E19.46174
G1 X89.77 Y131.2 E19.71714
G1 X89.677 Y131.2 E19.72178
G1 X82.023 Y131.145 E20.10365
G1 X76.932 Y131.19 E20.35765
G1 X76.288 Y131.155 E20.38983
G1 X75.653 Y131.042 E20.42201
G1 X75.038 Y130.85 E20.45415
G1 X74.45 Y130.584 E20.48635
G1 X73.901 Y130.248 E20.51846
G1 X73.397 Y129.846 E20.55062
G1 X72.947 Y129.384 E20.5828
G1 X72.557 Y128.871 E20.61495
G1 X72.234 Y128.313 E20.64712
G1 X72.075 Y127.964 E20.66625
G1 X69.338 Y121.294 E21.02594
G1 X67.006 Y116.51 E21.29147
G1 X64.373 Y111.803 E21.56054
G1 X62.471 Y108.738 E21.74051
G1 X62.165 Y108.17 E21.77269
G1 X61.933 Y107.569 E21.80483
G1 X61.776 Y106.943 E21.83703
G1 X61.689 Y105.996 E21.88448
G1 X61.689 Y91 E22.63263
G1 X61.729 Y90.357 E22.66477
G1 X61.848 Y89.723 E22.69696
G1 X62.045 Y89.109 E22.72913
G1 X62.316 Y88.524 E22.76129
G1 X62.494 Y88.221 E22.77882
G1 X63.712 Y86.294 E22.89256
G1 X66.418 Y81.605 E23.16265
G1 X68.825 Y76.829 E23.42948
G1 X70.973 Y71.895 E23.69795
G1 X72.03 Y69.145 E23.84493
G1 X72.298 Y68.559 E23.87708
G1 X72.636 Y68.01 E23.90925
G1 X73.04 Y67.508 E23.94139
G1 F600 E21.44139
G0 F1470 X76.213 Y71.615
G0 X77.491 Y71.614
G0 X79.422 Y85.2
G0 X79.523 Y85.2
;TYPE:WALL-INNER
G1 F600 E23.94139
G1 F1470 X79.523 Y85.4 E23.95137
G1 X79.323 Y85.4 E23.95783
G1 X77.478 Y85.4 E24.04988
G1 X77.477 Y71.8 E24.72839
G1 X77.477 Y71.6 E24.73837
G1 X77.677 Y71.6 E24.74483
G1 X79.522 Y71.6 E24.83687
G1 X79.523 Y85.2 E25.51538
G0 X79.923 Y85.6
;TYPE:WALL-OUTER
G1 X79.923 Y85.8 E25.52536
G1 X79.723 Y85.8 E25.53182
G1 X77.078 Y85.8 E25.66378
G1 X77.077 Y71.4 E26.3822
G1 X77.077 Y71.2 E26.39218
G1 X77.277 Y71.2 E26.39864
G1 X79.922 Y71.2 E26.5306
G1 X79.923 Y85.6 E27.24902
G0 X79.923 Y85.8
G0 X79.453 Y85.33
G0 X79.133 Y85.01
;TYPE:SKIN
G1 X77.868 Y85.01 E27.31213
G1 X77.867 Y71.99 E27.9617
G1 X79.132 Y71.99 E28.02481
G1 X79.133 Y85.01 E28.67438
G0 X78.606 Y84.829
G1 X78.047 Y84.27 E28.71382
G0 X78.047 Y83.704
G1 X78.953 Y84.61 E28.77774
G1 X79.023 Y84.68
G0 X78.953 Y84.044
G1 X78.047 Y83.138 E28.84167
G1 X77.977 Y83.068
G0 X78.047 Y82.573
G1 X78.953 Y83.478 E28.90555
G1 X79.023 Y83.548
G0 X78.953 Y82.913
G1 X78.047 Y82.007 E28.96948
G1 X77.977 Y81.937
G0 X78.047 Y81.441
G1 X78.953 Y82.347 E29.0334
G1 X79.023 Y82.417
G0 X78.953 Y81.781
G1 X78.047 Y80.876 E29.09729
G1 X77.977 Y80.806
G0 X78.046 Y80.309
G1 X78.953 Y81.216 E29.16128
G1 X79.023 Y81.286
G0 X78.953 Y80.65
G1 X78.046 Y79.743 E29.22527
G1 X77.976 Y79.673
G0 X78.046 Y79.178
G1 X78.952 Y80.084 E29.2892
G1 X79.022 Y80.154
G0 X78.952 Y79.518
G1 X78.046 Y78.612 E29.35312
G1 X77.976 Y78.542
G0 X78.046 Y78.046
G1 X78.952 Y78.952 E29.41704
G1 X79.022 Y79.022
G0 X78.952 Y78.387
G1 X78.046 Y77.481 E29.48097
G1 X77.976 Y77.411
G0 X78.046 Y76.915
G1 X78.952 Y77.821 E29.54489
G1 X79.022 Y77.891
G0 X78.952 Y77.255
G1 X78.046 Y76.349 E29.60881
G1 X77.976 Y76.279
G0 X78.046 Y75.783
G1 X78.952 Y76.689 E29.67274
G1 X79.022 Y76.759
G0 X78.952 Y76.123
G1 X78.046 Y75.217 E29.73666
G1 X77.976 Y75.147
G0 X78.046 Y74.652
G1 X78.952 Y75.557 E29.80055
G1 X79.022 Y75.627
G0 X78.952 Y74.992
G1 X78.046 Y74.086 E29.86447
G1 X77.976 Y74.016
G0 X78.046 Y73.52
G1 X78.952 Y74.426 E29.92839
G1 X79.022 Y74.496
G0 X78.952 Y73.86
G1 X78.046 Y72.955 E29.99228
G1 X77.976 Y72.885
G0 X78.046 Y72.389
G1 X78.952 Y73.295 E30.05621
G1 X79.022 Y73.365
G0 X78.952 Y72.729
G1 X78.392 Y72.17 E30.09568
G1 F600 E27.59568
G0 F1470 X77.492 Y85.386
G0 X76.213 Y85.387
G0 X70.787 Y91.613
G0 X69.508 Y91.614
G0 X69.422 Y105.2
G0 X69.523 Y105.2
;TYPE:WALL-INNER
G1 F600 E30.09568
G1 F1470 X69.523 Y105.4 E30.10566
G1 X69.323 Y105.4 E30.11212
G1 X67.478 Y105.4 E30.20417
G1 X67.477 Y91.8 E30.88267
G1 X67.477 Y91.6 E30.89265
G1 X67.677 Y91.6 E30.89911
G1 X69.522 Y91.6 E30.99116
G1 X69.523 Y105.2 E31.66967
G0 X69.923 Y105.6
;TYPE:WALL-OUTER
G1 X69.923 Y105.8 E31.67965
G1 X69.723 Y105.8 E31.68611
G1 X67.078 Y105.8 E31.81807
G1 X67.077 Y91.4 E32.53648
G1 X67.077 Y91.2 E32.54646
G1 X67.277 Y91.2 E32.55292
G1 X69.922 Y91.2 E32.68488
G1 X69.923 Y105.6 E33.4033
G0 X69.923 Y105.8
G0 X69.453 Y105.33
G0 X69.133 Y105.01
;TYPE:SKIN
G1 X67.868 Y105.01 E33.46641
G1 X67.867 Y91.99 E34.11598
G1 X69.132 Y91.99 E34.17909
G1 X69.133 Y105.01 E34.82867
G0 X68.625 Y104.829
G1 X68.047 Y104.251 E34.86945
G1 X67.977 Y104.181
G0 X68.047 Y103.685
G1 X68.953 Y104.591 E34.93337
G1 X69.023 Y104.661
G0 X68.953 Y104.026
G1 X68.047 Y103.12 E34.99729
G1 X67.977 Y103.05
G0 X68.047 Y102.554
G1 X68.953 Y103.46 E35.06122
G1 X69.023 Y103.53
G0 X68.953 Y102.894
G1 X68.047 Y101.988 E35.12514
G1 X67.977 Y101.918
G0 X68.047 Y101.423
G1 X68.953 Y102.328 E35.18903
G1 X69.023 Y102.398
G0 X68.953 Y101.763
G1 X68.047 Y100.857 E35.25295
G1 X67.977 Y100.787
G0 X68.047 Y100.291
G1 X68.953 Y101.197 E35.31687
G1 X69.023 Y101.267
G0 X68.953 Y100.631
G1 X68.047 Y99.726 E35.38076
G1 X67.977 Y99.656
G0 X68.047 Y99.16
G1 X68.953 Y100.066 E35.44468
G1 X69.023 Y100.136
G0 X68.953 Y99.5
G1 X68.047 Y98.594 E35.50861
G1 X67.977 Y98.524
G0 X68.047 Y98.028
G1 X68.953 Y98.934 E35.57253
G1 X69.023 Y99.004
G0 X68.952 Y98.368
G1 X68.047 Y97.462 E35.63642
G1 X67.977 Y97.392
G0 X68.047 Y96.896
G1 X68.952 Y97.802 E35.70031
G1 X69.022 Y97.872
G0 X68.952 Y97.237
G1 X68.047 Y96.331 E35.76419
G1 X67.977 Y96.261
G0 X68.047 Y95.765
G1 X68.952 Y96.671 E35.82808
G1 X69.022 Y96.741
G0 X68.952 Y96.105
G1 X68.047 Y95.199 E35.89197
G1 X67.977 Y95.129
G0 X68.047 Y94.634
G1 X68.952 Y95.54 E35.95586
G1 X69.022 Y95.61
G0 X68.952 Y94.974
G1 X68.047 Y94.068 E36.01975
G1 X67.977 Y93.998
G0 X68.047 Y93.502
G1 X68.952 Y94.408 E36.08363
G1 X69.022 Y94.478
G0 X68.952 Y93.842
G1 X68.047 Y92.937 E36.14749
G1 X67.977 Y92.867
G0 X68.047 Y92.371
G1 X68.952 Y93.277 E36.21137
G1 X69.022 Y93.347
G0 X68.952 Y92.711
G1 X68.41 Y92.169 E36.24962
G1 F600 E33.74962
G0 F1470 X69.522 Y105.2
G0 X70.787 Y105.199
G0 X76.213 Y105.201
G0 X77.478 Y105.2
G0 X79.422 Y105.2
G0 X79.523 Y105.2
;TYPE:WALL-INNER
G1 F600 E36.24962
G1 F1470 X79.523 Y105.4 E36.25959
G1 X79.323 Y105.4 E36.26605
G1 X77.478 Y105.4 E36.3581
G1 X77.477 Y91.8 E37.03661
G1 X77.477 Y91.6 E37.04659
G1 X77.677 Y91.6 E37.05305
G1 X79.522 Y91.6 E37.1451
G1 X79.523 Y105.2 E37.8236
G0 X79.923 Y105.6
;TYPE:WALL-OUTER
G1 X79.923 Y105.8 E37.83358
G1 X79.723 Y105.8 E37.84004
G1 X77.078 Y105.8 E37.972
G1 X77.077 Y91.4 E38.69042
G1 X77.077 Y91.2 E38.7004
G1 X77.277 Y91.2 E38.70686
G1 X79.922 Y91.2 E38.83882
G1 X79.923 Y105.6 E39.55724
G0 X79.923 Y105.8
G0 X79.453 Y105.33
G0 X79.133 Y105.01
;TYPE:SKIN
G1 X77.868 Y105.01 E39.62035
G1 X77.867 Y91.99 E40.26992
G1 X79.132 Y91.99 E40.33303
G1 X79.133 Y105.01 E40.9826
G0 X78.242 Y104.829
G1 X78.047 Y104.634 E40.99636
G0 X78.047 Y104.069
G1 X78.807 Y104.829 E41.04998
G1 X78.877 Y104.899
G0 X78.953 Y104.409
G1 X78.047 Y103.503 E41.1139
G1 X77.977 Y103.433
G0 X78.047 Y102.937
G1 X78.953 Y103.843 E41.17783
G1 X79.023 Y103.913
G0 X78.953 Y103.277
G1 X78.047 Y102.372 E41.24171
G1 X77.977 Y102.302
G0 X78.047 Y101.806
G1 X78.953 Y102.712 E41.30564
G1 X79.023 Y102.782
G0 X78.953 Y102.146
G1 X78.047 Y101.24 E41.36956
G1 X77.977 Y101.17
G0 X78.047 Y100.675
G1 X78.953 Y101.58 E41.43345
G1 X79.023 Y101.65
G0 X78.953 Y101.015
G1 X78.047 Y100.109 E41.49737
G1 X77.977 Y100.039
G0 X78.047 Y99.543
G1 X78.953 Y100.449 E41.5613
G1 X79.023 Y100.519
G0 X78.953 Y99.883
G1 X78.047 Y98.977 E41.62522
G1 X77.977 Y98.907
G0 X78.046 Y98.411
G1 X78.953 Y99.318 E41.68921
G1 X79.023 Y99.388
G0 X78.953 Y98.752
G1 X78.046 Y97.845 E41.75321
G1 X77.976 Y97.775
G0 X78.046 Y97.28
G1 X78.952 Y98.186 E41.81713
G1 X79.022 Y98.256
G0 X78.952 Y97.62
G1 X78.046 Y96.714 E41.88105
G1 X77.976 Y96.644
G0 X78.046 Y96.148
G1 X78.952 Y97.054 E41.94498
G1 X79.022 Y97.124
G0 X78.952 Y96.488
G1 X78.046 Y95.583 E42.00886
G1 X77.976 Y95.513
G0 X78.046 Y95.017
G1 X78.952 Y95.923 E42.07279
G1 X79.022 Y95.993
G0 X78.952 Y95.357
G1 X78.046 Y94.451 E42.13671
G1 X77.976 Y94.381
G0 X78.046 Y93.886
G1 X78.952 Y94.791 E42.2006
G1 X79.022 Y94.861
G0 X78.952 Y94.226
G1 X78.046 Y93.32 E42.26452
G1 X77.976 Y93.25
G0 X78.046 Y92.754
G1 X78.952 Y93.66 E42.32844
G1 X79.022 Y93.73
G0 X78.952 Y93.094
G1 X78.046 Y92.189 E42.39233
G1 X77.976 Y92.119
G0 X78.592 Y92.169
G1 X78.952 Y92.529 E42.41773
G1 F600 E39.91773
G0 F1470 X79.522 Y105.2
G0 X80.787 Y105.199
G0 X86.213 Y105.201
G0 X87.478 Y105.2
G0 X89.422 Y105.2
G0 X89.523 Y105.2
;TYPE:WALL-INNER
G1 F600 E42.41773
G1 F1470 X89.523 Y105.4 E42.42771
G1 X89.323 Y105.4 E42.43417
G1 X87.478 Y105.4 E42.52622
G1 X87.477 Y91.8 E43.20472
G1 X87.477 Y91.6 E43.2147
G1 X87.677 Y91.6 E43.22116
G1 X89.522 Y91.6 E43.31321
G1 X89.523 Y105.2 E43.99172
G0 X89.923 Y105.6
;TYPE:WALL-OUTER
G1 X89.923 Y105.8 E44.0017
G1 X89.723 Y105.8 E44.00816
G1 X87.078 Y105.8 E44.14012
G1 X87.077 Y91.4 E44.85854
G1 X87.077 Y91.2 E44.86851
G1 X87.277 Y91.2 E44.87497
G1 X89.922 Y91.2 E45.00693
G1 X89.923 Y105.6 E45.72535
G0 X89.923 Y105.8
G0 X89.453 Y105.33
G0 X89.133 Y105.01
;TYPE:SKIN
G1 X87.868 Y105.01 E45.78846
G1 X87.867 Y91.99 E46.43803
G1 X89.132 Y91.99 E46.50115
G1 X89.133 Y105.01 E47.15072
G0 X88.424 Y104.829
G1 X88.047 Y104.452 E47.17731
G0 X88.047 Y103.886
G1 X88.953 Y104.792 E47.24124
G1 X89.023 Y104.862
G0 X88.953 Y104.226
G1 X88.047 Y103.321 E47.30513
G1 X87.977 Y103.251
G0 X88.047 Y102.755
G1 X88.953 Y103.661 E47.36905
G1 X89.023 Y103.731
G0 X88.953 Y103.095
G1 X88.047 Y102.189 E47.43297
G1 X87.977 Y102.119
G0 X88.047 Y101.623
G1 X88.953 Y102.529 E47.4969
G1 X89.023 Y102.599
G0 X88.953 Y101.964
G1 X88.047 Y101.058 E47.56082
G1 X87.977 Y100.988
G0 X88.047 Y100.492
G1 X88.953 Y101.398 E47.62474
G1 X89.023 Y101.468
G0 X88.953 Y100.832
G1 X88.047 Y99.926 E47.68867
G1 X87.977 Y99.856
G0 X88.047 Y99.361
G1 X88.953 Y100.267 E47.75259
G1 X89.023 Y100.337
G0 X88.953 Y99.701
G1 X88.047 Y98.795 E47.81651
G1 X87.977 Y98.725
G0 X88.046 Y98.229
G1 X88.953 Y99.135 E47.88047
G1 X89.023 Y99.205
G0 X88.953 Y98.569
G1 X88.046 Y97.663 E47.94443
G1 X87.976 Y97.593
G0 X88.046 Y97.097
G1 X88.952 Y98.003 E48.00835
G1 X89.022 Y98.073
G0 X88.952 Y97.437
G1 X88.046 Y96.532 E48.07224
G1 X87.976 Y96.462
G0 X88.046 Y95.966
G1 X88.952 Y96.872 E48.13616
G1 X89.022 Y96.942
G0 X88.952 Y96.306
G1 X88.046 Y95.4 E48.20009
G1 X87.976 Y95.33
G0 X88.046 Y94.835
G1 X88.952 Y95.74 E48.26397
G1 X89.022 Y95.81
G0 X88.952 Y95.175
G1 X88.046 Y94.269 E48.3279
G1 X87.976 Y94.199
G0 X88.046 Y93.703
G1 X88.952 Y94.609 E48.39182
G1 X89.022 Y94.679
G0 X88.952 Y94.043
G1 X88.046 Y93.137 E48.45574
G1 X87.976 Y93.067
G0 X88.046 Y92.572
G1 X88.952 Y93.478 E48.51967
G1 X89.022 Y93.548
G0 X88.952 Y92.912
G1 X88.209 Y92.169 E48.57209
G1 X88.139 Y92.099
G0 X88.775 Y92.169
G1 X88.952 Y92.346 E48.58458
G1 F600 E46.08458
G0 F1470 X87.492 Y105.386
G0 X86.213 Y105.387
G0 X80.787 Y111.613
G0 X79.508 Y111.614
G0 X79.422 Y125.2
G0 X79.523 Y125.2
;TYPE:WALL-INNER
G1 F600 E48.58458
G1 F1470 X79.523 Y125.4 E48.59456
G1 X79.323 Y125.4 E48.60102
G1 X77.478 Y125.4 E48.69306
G1 X77.477 Y111.8 E49.37157
G1 X77.477 Y111.6 E49.38155
G1 X77.677 Y111.6 E49.38801
G1 X79.522 Y111.6 E49.48006
G1 X79.523 Y125.2 E50.15856
G0 X79.923 Y125.6
;TYPE:WALL-OUTER
G1 X79.923 Y125.8 E50.16854
G1 X79.723 Y125.8 E50.175
G1 X77.078 Y125.8 E50.30696
G1 X77.077 Y111.4 E51.02538
G1 X77.077 Y111.2 E51.03536
G1 X77.277 Y111.2 E51.04182
G1 X79.922 Y111.2 E51.17378
G1 X79.923 Y125.6 E51.8922
