;FLAVOR:Marlin
;TIME:4440
;Filament used: 2.50116m
;Layer height: 0.175
;Generated with Cura_SteamEngine 3.1.0
M190 S75
M104 S200
M109 S200
M82 ; absolute extrusion mode
G21       ;metric values
G90       ;absolute positioning
M82       ;set extruder to absolute mode
M107      ;start with the fan off
G28       ;home
G1 Z15.0 F840
G92 E0    ;zero the extruded length
G1 F200 E3              ;extrude 3mm of feed stock
G92 E0                  ;zero the extruded length again
G1 F840
M117 Printing...
;LAYER_COUNT:54
;LAYER:0
M107
G0 F1470 X70.864 Y71.067 Z0.3
;TYPE:SKIRT
G1 X71.256 Y70.701 E0.02676
G1 X71.698 Y70.398 E0.05349
G1 X72.181 Y70.163 E0.08029
G1 X72.692 Y70.003 E0.107
G1 X73.222 Y69.92 E0.13377
G1 X73.509 Y69.909 E0.1481
G1 X123.491 Y69.91 E2.64171
G1 X124.026 Y69.95 E2.66847
G1 X124.549 Y70.069 E2.69523
G1 X125.048 Y70.264 E2.72196
G1 X125.513 Y70.532 E2.74874
G1 X125.933 Y70.865 E2.77548
G1 X126.299 Y71.257 E2.80224
G1 X126.602 Y71.699 E2.82897
G1 X126.837 Y72.182 E2.85577
G1 X126.997 Y72.693 E2.88248
G1 X127.08 Y73.223 E2.90925
G1 X127.091 Y73.51 E2.92358
G1 X127.091 Y123.491 E5.41714
G1 X127.051 Y124.026 E5.4439
G1 X126.932 Y124.549 E5.47066
G1 X126.737 Y125.048 E5.49739
G1 X126.469 Y125.513 E5.52417
G1 X126.136 Y125.933 E5.55091
G1 X125.744 Y126.299 E5.57767
G1 X125.302 Y126.602 E5.6044
G1 X124.819 Y126.837 E5.6312
G1 X124.308 Y126.997 E5.65791
G1 X123.778 Y127.08 E5.68468
G1 X123.491 Y127.091 E5.69901
G1 X73.509 Y127.091 E8.19262
G1 X72.974 Y127.051 E8.21938
G1 X72.451 Y126.932 E8.24614
G1 X71.952 Y126.737 E8.27287
G1 X71.487 Y126.469 E8.29965
G1 X71.067 Y126.136 E8.32639
G1 X70.701 Y125.744 E8.35315
G1 X70.398 Y125.302 E8.37988
G1 X70.163 Y124.819 E8.40668
G1 X70.003 Y124.308 E8.43339
G1 X69.92 Y123.778 E8.46016
G1 X69.909 Y123.491 E8.47449
G1 X69.909 Y73.509 E10.9681
G1 X69.949 Y72.974 E10.99486
G1 X70.068 Y72.451 E11.02162
G1 X70.263 Y71.952 E11.04835
G1 X70.531 Y71.487 E11.07513
G1 X70.864 Y71.067 E11.10187
G0 X71.258 Y71.234
G1 X71.645 Y70.908 E11.12711
G1 X72.078 Y70.647 E11.15234
G1 X72.546 Y70.457 E11.17754
G1 X73.039 Y70.344 E11.20277
G1 X73.509 Y70.309 E11.22628
G1 X123.491 Y70.31 E13.7199
G1 X123.995 Y70.35 E13.74512
G1 X124.486 Y70.469 E13.77033
G1 X124.953 Y70.664 E13.79557
G1 X125.383 Y70.929 E13.82077
G1 X125.766 Y71.26 E13.84603
G1 X126.092 Y71.646 E13.87123
G1 X126.353 Y72.079 E13.89646
G1 X126.543 Y72.547 E13.92166
G1 X126.656 Y73.04 E13.94689
G1 X126.691 Y73.51 E13.9704
G1 X126.691 Y123.491 E16.46397
G1 X126.651 Y123.995 E16.48919
G1 X126.532 Y124.486 E16.5144
G1 X126.338 Y124.953 E16.53962
G1 X126.072 Y125.383 E16.56485
G1 X125.742 Y125.766 E16.59007
G1 X125.355 Y126.092 E16.61532
G1 X124.922 Y126.353 E16.64054
G1 X124.454 Y126.543 E16.66574
G1 X123.961 Y126.656 E16.69097
G1 X123.491 Y126.691 E16.71449
G1 X73.509 Y126.691 E19.2081
G1 X73.005 Y126.651 E19.23332
G1 X72.514 Y126.532 E19.25853
G1 X72.047 Y126.338 E19.28376
G1 X71.617 Y126.072 E19.30898
G1 X71.234 Y125.742 E19.33421
G1 X70.908 Y125.355 E19.35945
G1 X70.647 Y124.922 E19.38467
G1 X70.457 Y124.454 E19.40987
G1 X70.344 Y123.961 E19.43511
G1 X70.309 Y123.491 E19.45862
G1 X70.309 Y73.509 E21.95223
G1 X70.349 Y73.005 E21.97746
G1 X70.468 Y72.514 E22.00266
G1 X70.662 Y72.047 E22.02789
G1 X70.928 Y71.617 E22.05312
G1 X71.258 Y71.234 E22.07834
G1 F600 E19.57834
G0 F1470 X74.114 Y72.835
G0 X74.114 Y74.114
G0 X78.884 Y75.862
G0 X78.901 Y75.96
;TYPE:WALL-INNER
G1 F600 E22.07834
G1 F1470 X78.31 Y76.114 E22.10881
G1 X77.753 Y76.365 E22.13929
G1 X77.248 Y76.708 E22.16975
G1 X76.806 Y77.13 E22.20023
G1 X76.443 Y77.622 E22.23074
G1 X76.168 Y78.167 E22.26119
G1 X75.99 Y78.751 E22.29165
G1 X75.911 Y79.357 E22.32214
G1 X75.938 Y79.968 E22.35265
G1 X76.066 Y80.566 E22.38316
G1 X76.295 Y81.132 E22.41363
G1 X76.614 Y81.652 E22.44406
G1 X77.018 Y82.111 E22.47457
G1 X77.493 Y82.495 E22.50504
G1 X78.026 Y82.793 E22.53551
G1 X78.602 Y82.996 E22.56598
G1 X79.193 Y83.098 E22.5959
G1 X79.51 Y83.11 E22.61172
G1 X79.828 Y83.098 E22.6276
G1 X80.418 Y82.996 E22.65747
G1 X80.995 Y82.793 E22.68799
G1 X81.527 Y82.495 E22.71841
G1 X82.003 Y82.111 E22.74892
G1 X82.406 Y81.652 E22.77939
G1 X82.726 Y81.132 E22.80986
G1 X82.955 Y80.566 E22.84032
G1 X83.083 Y79.968 E22.87083
G1 X83.11 Y79.357 E22.90134
G1 X83.031 Y78.751 E22.93183
G1 X82.853 Y78.167 E22.96229
G1 X82.578 Y77.622 E22.99274
G1 X82.214 Y77.13 E23.02328
G1 X81.773 Y76.708 E23.05373
G1 X81.267 Y76.365 E23.08423
G1 X80.711 Y76.114 E23.11466
G1 X80.119 Y75.96 E23.14518
G1 X79.51 Y75.907 E23.17568
G1 X78.901 Y75.96 E23.20618
G0 X78.884 Y75.862
G0 X80.125 Y75.921
G0 X80.724 Y76.077
G0 X81.286 Y76.331
G0 X81.798 Y76.677
G0 X82.05 Y76.918
G0 X98.092 Y96.313
G0 X98.11 Y96.411
G1 X97.764 Y96.506 E23.22408
G1 X97.438 Y96.659 E23.24204
G1 X97.142 Y96.865 E23.26004
G1 X96.884 Y97.119 E23.2781
G1 X96.673 Y97.412 E23.29611
G1 X96.517 Y97.736 E23.31405
G1 X96.415 Y98.081 E23.332
G1 X96.375 Y98.441 E23.35007
G1 X96.396 Y98.8 E23.36801
G1 X96.477 Y99.151 E23.38598
G1 X96.616 Y99.485 E23.40403
G1 X96.81 Y99.788 E23.42198
G1 X97.051 Y100.056 E23.43996
G1 X97.335 Y100.278 E23.45795
G1 X97.653 Y100.449 E23.47596
G1 X97.991 Y100.563 E23.49376
G1 X98.309 Y100.618 E23.50986
G1 X98.519 Y100.625 E23.52034
G1 X98.725 Y100.613 E23.53064
G1 X99.065 Y100.55 E23.54789
G1 X99.404 Y100.424 E23.56593
G1 X99.715 Y100.243 E23.58388
G1 X99.993 Y100.014 E23.60185
G1 X100.227 Y99.739 E23.61987
G1 X100.411 Y99.431 E23.63777
G1 X100.542 Y99.094 E23.65581
G1 X100.612 Y98.74 E23.67381
G1 X100.622 Y98.38 E23.69178
G1 X100.572 Y98.023 E23.70976
G1 X100.46 Y97.679 E23.72781
G1 X100.294 Y97.359 E23.74579
G1 X100.075 Y97.072 E23.76381
G1 X99.811 Y96.827 E23.78177
G1 X99.51 Y96.63 E23.79972
G1 X99.179 Y96.486 E23.81773
G1 X98.829 Y96.4 E23.83571
G1 X98.469 Y96.375 E23.85371
G1 X98.11 Y96.411 E23.87172
G0 X98.092 Y96.313
G0 X98.835 Y96.361
G0 X99.528 Y96.595
G0 X99.854 Y96.849
G0 X116.865 Y113.841
G0 X116.881 Y113.939
G1 X116.289 Y114.094 E23.90225
G1 X115.733 Y114.346 E23.9327
G1 X115.227 Y114.686 E23.96311
G1 X114.786 Y115.11 E23.99364
G1 X114.422 Y115.602 E24.02417
G1 X114.147 Y116.146 E24.05458
G1 X113.969 Y116.731 E24.08509
G1 X113.89 Y117.336 E24.11553
G1 X113.917 Y117.948 E24.14609
G1 X114.045 Y118.545 E24.17655
G1 X114.274 Y119.111 E24.20701
G1 X114.594 Y119.631 E24.23747
G1 X114.997 Y120.09 E24.26795
G1 X115.473 Y120.474 E24.29846
G1 X116.005 Y120.772 E24.32888
G1 X116.582 Y120.975 E24.3594
G1 X117.171 Y121.077 E24.38922
G1 X117.49 Y121.09 E24.40515
G1 X117.808 Y121.077 E24.42103
G1 X118.398 Y120.975 E24.4509
G1 X118.974 Y120.772 E24.48137
G1 X119.507 Y120.474 E24.51183
G1 X119.982 Y120.09 E24.54231
G1 X120.386 Y119.631 E24.57281
G1 X120.705 Y119.111 E24.60325
G1 X120.934 Y118.545 E24.63371
G1 X121.062 Y117.948 E24.66417
G1 X121.089 Y117.336 E24.69473
G1 X121.01 Y116.731 E24.72517
G1 X120.832 Y116.146 E24.75568
G1 X120.557 Y115.602 E24.78609
G1 X120.195 Y115.11 E24.81657
G1 X119.752 Y114.686 E24.84716
G1 X119.247 Y114.346 E24.87753
G1 X118.69 Y114.094 E24.90803
G1 X118.099 Y113.939 E24.93851
G1 X117.49 Y113.888 E24.969
G1 X116.881 Y113.939 E24.99949
G0 X116.865 Y113.841
G0 X118.105 Y113.9
G0 X118.703 Y114.057
G0 X119.266 Y114.312
G0 X119.777 Y114.655
G0 X120.225 Y115.084
G0 X120.591 Y115.582
G0 X120.816 Y116.027
G0 X122.83 Y122.83
G0 X122.9 Y122.9
G1 X74.1 Y122.9 E27.43414
G1 X74.1 Y74.1 E29.86878
G1 X122.9 Y74.1 E32.30342
G1 X122.9 Y122.9 E34.73806
G0 X122.83 Y122.83
G0 X80.125 Y113.9
G0 X78.885 Y113.841
G0 X78.901 Y113.939
G1 X78.31 Y114.094 E34.76854
G1 X77.753 Y114.346 E34.79904
G1 X77.248 Y114.686 E34.82942
G1 X76.805 Y115.11 E34.86001
G1 X76.443 Y115.602 E34.89048
G1 X76.168 Y116.146 E34.92089
G1 X75.99 Y116.731 E34.9514
G1 X75.911 Y117.336 E34.98184
G1 X75.938 Y117.948 E35.0124
G1 X76.066 Y118.545 E35.04287
G1 X76.295 Y119.111 E35.07333
G1 X76.614 Y119.631 E35.10376
G1 X77.018 Y120.09 E35.13427
G1 X77.493 Y120.474 E35.16474
G1 X78.026 Y120.772 E35.19521
G1 X78.602 Y120.975 E35.22568
G1 X79.192 Y121.077 E35.25555
G1 X79.51 Y121.09 E35.27143
G1 X79.829 Y121.077 E35.28735
G1 X80.418 Y120.975 E35.31718
G1 X80.995 Y120.772 E35.34769
G1 X81.527 Y120.474 E35.37812
G1 X82.003 Y120.09 E35.40863
G1 X82.406 Y119.631 E35.4391
G1 X82.726 Y119.111 E35.46956
G1 X82.955 Y118.545 E35.50002
G1 X83.083 Y117.948 E35.53049
G1 X83.11 Y117.336 E35.56105
G1 X83.031 Y116.731 E35.59149
G1 X82.853 Y116.146 E35.62199
G1 X82.578 Y115.602 E35.65241
G1 X82.214 Y115.11 E35.68294
G1 X81.773 Y114.686 E35.71346
G1 X81.267 Y114.346 E35.74387
G1 X80.711 Y114.094 E35.77433
G1 X80.119 Y113.939 E35.80486
G1 X79.51 Y113.888 E35.83535
G1 X78.901 Y113.939 E35.86584
G0 X78.885 Y113.841
G0 X115.202 Y76.677
G0 X115.616 Y76.398
G0 X116.865 Y75.862
G0 X116.881 Y75.96
G1 X116.289 Y76.114 E35.89636
G1 X115.733 Y76.365 E35.92679
G1 X115.227 Y76.708 E35.95729
G1 X114.786 Y77.13 E35.98774
G1 X114.422 Y77.622 E36.01827
G1 X114.147 Y78.167 E36.04873
G1 X113.969 Y78.751 E36.07919
G1 X113.89 Y79.357 E36.10968
G1 X113.917 Y79.968 E36.14019
G1 X114.045 Y80.566 E36.1707
G1 X114.274 Y81.132 E36.20116
G1 X114.594 Y81.652 E36.23162
G1 X114.997 Y82.111 E36.2621
G1 X115.473 Y82.495 E36.29261
G1 X116.005 Y82.793 E36.32303
G1 X116.582 Y82.996 E36.35355
G1 X117.172 Y83.098 E36.38342
G1 X117.49 Y83.11 E36.3993
G1 X117.807 Y83.098 E36.41512
G1 X118.398 Y82.996 E36.44504
G1 X118.974 Y82.793 E36.47551
G1 X119.507 Y82.495 E36.50598
G1 X119.982 Y82.111 E36.53645
G1 X120.386 Y81.652 E36.56696
G1 X120.705 Y81.132 E36.59739
G1 X120.934 Y80.566 E36.62786
G1 X121.062 Y79.968 E36.65837
G1 X121.089 Y79.357 E36.68888
G1 X121.01 Y78.751 E36.71937
G1 X120.832 Y78.167 E36.74983
G1 X120.557 Y77.622 E36.78028
G1 X120.194 Y77.13 E36.81079
G1 X119.752 Y76.708 E36.84127
G1 X119.247 Y76.365 E36.87173
G1 X118.69 Y76.114 E36.90221
G1 X118.099 Y75.96 E36.93268
G1 X117.49 Y75.907 E36.96318
G1 X116.881 Y75.96 E36.99368
G0 X116.949 Y76.356
;TYPE:WALL-OUTER
G1 X116.423 Y76.493 E37.02079
G1 X115.929 Y76.716 E37.04783
G1 X115.479 Y77.02 E37.07493
G1 X115.087 Y77.395 E37.10199
G1 X114.764 Y77.832 E37.1291
G1 X114.52 Y78.317 E37.15619
G1 X114.361 Y78.836 E37.18327
G1 X114.291 Y79.374 E37.21034
G1 X114.315 Y79.917 E37.23745
G1 X114.429 Y80.448 E37.26455
G1 X114.632 Y80.951 E37.29161
G1 X114.917 Y81.413 E37.31869
G1 X115.275 Y81.821 E37.34577
G1 X115.698 Y82.162 E37.37288
G1 X116.171 Y82.427 E37.39993
G1 X116.683 Y82.608 E37.42702
G1 X117.214 Y82.699 E37.4539
G1 X117.49 Y82.71 E37.46768
G1 X117.765 Y82.699 E37.48141
G1 X118.297 Y82.608 E37.50834
G1 X118.808 Y82.427 E37.53539
G1 X119.282 Y82.162 E37.56248
G1 X119.704 Y81.821 E37.58955
G1 X120.063 Y81.413 E37.61666
G1 X120.347 Y80.951 E37.64372
G1 X120.55 Y80.448 E37.67078
G1 X120.664 Y79.917 E37.69787
G1 X120.688 Y79.374 E37.72499
G1 X120.618 Y78.836 E37.75206
G1 X120.459 Y78.317 E37.77914
G1 X120.215 Y77.832 E37.80622
G1 X119.893 Y77.395 E37.8333
G1 X119.5 Y77.02 E37.86041
G1 X119.051 Y76.716 E37.88746
G1 X118.556 Y76.493 E37.91454
G1 X118.031 Y76.356 E37.94161
G1 X117.49 Y76.309 E37.96871
G1 X116.949 Y76.356 E37.9958
G0 X116.756 Y76.406
G0 X116.631 Y75.922
G0 X115.714 Y76.331
G0 X115.202 Y76.677
G0 X115.076 Y76.797
G0 X98.053 Y96.323
G0 X98.184 Y96.806
G1 X97.903 Y96.883 E38.01033
G1 X97.638 Y97.007 E38.02493
G1 X97.398 Y97.174 E38.03952
G1 X97.189 Y97.38 E38.05416
G1 X97.018 Y97.617 E38.06874
G1 X96.892 Y97.88 E38.08329
G1 X96.809 Y98.161 E38.09791
G1 X96.776 Y98.452 E38.11252
G1 X96.793 Y98.743 E38.12706
G1 X96.859 Y99.028 E38.14165
G1 X96.972 Y99.299 E38.1563
G1 X97.129 Y99.545 E38.17086
G1 X97.325 Y99.762 E38.18545
G1 X97.555 Y99.942 E38.20002
G1 X97.813 Y100.081 E38.21464
G1 X98.089 Y100.174 E38.22917
G1 X98.35 Y100.219 E38.24239
G1 X98.514 Y100.225 E38.25057
G1 X98.676 Y100.215 E38.25867
G1 X98.958 Y100.163 E38.27298
G1 X99.233 Y100.061 E38.28761
G1 X99.486 Y99.914 E38.30221
G1 X99.711 Y99.728 E38.31677
G1 X99.901 Y99.505 E38.33139
G1 X100.05 Y99.255 E38.34591
G1 X100.156 Y98.982 E38.36052
G1 X100.213 Y98.695 E38.37512
G1 X100.221 Y98.402 E38.38974
G1 X100.181 Y98.113 E38.4043
G1 X100.09 Y97.834 E38.41894
G1 X99.955 Y97.574 E38.43355
G1 X99.778 Y97.342 E38.44811
G1 X99.564 Y97.143 E38.46269
G1 X99.319 Y96.983 E38.47729
G1 X99.051 Y96.866 E38.49188
G1 X98.767 Y96.797 E38.50646
G1 X98.475 Y96.776 E38.52107
G1 X98.184 Y96.806 E38.53566
G0 X97.991 Y96.858
G0 X97.859 Y96.376
G0 X98.835 Y96.361
G0 X99.528 Y96.595
G0 X99.854 Y96.849
G0 X116.908 Y113.837
G0 X116.949 Y114.335
G1 X116.423 Y114.472 E38.56278
G1 X115.929 Y114.696 E38.58984
G1 X115.479 Y114.999 E38.61691
G1 X115.087 Y115.375 E38.644
G1 X114.764 Y115.812 E38.67112
G1 X114.52 Y116.296 E38.69816
G1 X114.361 Y116.816 E38.72529
G1 X114.291 Y117.353 E38.7523
G1 X114.315 Y117.897 E38.77947
G1 X114.429 Y118.427 E38.80652
G1 X114.632 Y118.93 E38.83358
G1 X114.917 Y119.392 E38.86066
G1 X115.275 Y119.8 E38.88774
G1 X115.698 Y120.141 E38.91485
G1 X116.171 Y120.406 E38.9419
G1 X116.683 Y120.587 E38.96899
G1 X117.214 Y120.678 E38.99587
G1 X117.49 Y120.69 E39.00965
G1 X117.765 Y120.678 E39.02338
G1 X118.297 Y120.587 E39.05031
G1 X118.808 Y120.406 E39.07736
G1 X119.282 Y120.141 E39.10445
G1 X119.704 Y119.8 E39.13152
G1 X120.063 Y119.392 E39.15863
G1 X120.347 Y118.93 E39.18569
G1 X120.55 Y118.427 E39.21275
G1 X120.664 Y117.897 E39.23979
G1 X120.688 Y117.353 E39.26696
G1 X120.618 Y116.816 E39.29398
G1 X120.459 Y116.296 E39.32111
G1 X120.215 Y115.812 E39.34815
G1 X119.893 Y115.375 E39.37523
G1 X119.5 Y114.999 E39.40237
G1 X119.051 Y114.696 E39.42939
G1 X118.556 Y114.472 E39.4565
G1 X118.031 Y114.335 E39.48357
G1 X117.49 Y114.289 E39.51065
G1 X116.949 Y114.335 E39.53774
G0 X116.756 Y114.385
G0 X116.63 Y113.902
G0 X117.49 Y113.848
G0 X118.105 Y113.9
G0 X118.703 Y114.057
G0 X119.266 Y114.312
G0 X119.777 Y114.655
G0 X120.225 Y115.084
G0 X120.591 Y115.582
G0 X120.816 Y116.027
G0 X122.83 Y122.83
G0 X123.3 Y123.3
G1 X73.7 Y123.3 E42.0123
G1 X73.7 Y73.7 E44.48685
G1 X123.3 Y73.7 E46.9614
G1 X123.3 Y123.3 E49.43596
G0 X123.1 Y123.3
G0 X122.83 Y122.83
G0 X80.125 Y113.9
G0 X78.928 Y113.837
G0 X78.969 Y114.335
G1 X78.444 Y114.472 E49.46303
G1 X77.949 Y114.696 E49.49013
G1 X77.5 Y114.999 E49.51716
G1 X77.107 Y115.375 E49.54429
G1 X76.785 Y115.812 E49.57137
G1 X76.541 Y116.296 E49.59842
G1 X76.382 Y116.816 E49.62555
G1 X76.312 Y117.353 E49.65256
G1 X76.336 Y117.897 E49.67973
G1 X76.45 Y118.427 E49.70678
G1 X76.653 Y118.93 E49.73384
G1 X76.937 Y119.392 E49.76089
G1 X77.296 Y119.8 E49.78801
G1 X77.718 Y120.141 E49.81507
G1 X78.192 Y120.406 E49.84217
G1 X78.703 Y120.587 E49.86921
G1 X79.235 Y120.678 E49.89614
G1 X79.51 Y120.69 E49.90987
G1 X79.786 Y120.678 E49.92366
G1 X80.317 Y120.587 E49.95053
G1 X80.829 Y120.406 E49.97763
G1 X81.302 Y120.141 E50.00468
G1 X81.725 Y119.8 E50.03178
G1 X82.083 Y119.392 E50.05886
G1 X82.368 Y118.93 E50.08595
G1 X82.571 Y118.427 E50.11301
G1 X82.685 Y117.897 E50.14005
G1 X82.709 Y117.353 E50.16722
G1 X82.639 Y116.816 E50.19424
G1 X82.48 Y116.296 E50.22137
G1 X82.236 Y115.812 E50.24841
G1 X81.913 Y115.375 E50.27552
G1 X81.521 Y114.999 E50.30262
G1 X81.071 Y114.696 E50.32968
G1 X80.577 Y114.472 E50.35674
G1 X80.051 Y114.335 E50.38386
G1 X79.51 Y114.289 E50.41095
G1 X78.969 Y114.335 E50.43804
G0 X78.776 Y114.385
G0 X78.65 Y113.902
G0 X75.872 Y79.356
G0 X75.951 Y78.743
G0 X76.131 Y78.153
G0 X76.409 Y77.602
G0 X76.776 Y77.104
G0 X77.223 Y76.677
G0 X77.682 Y76.366
G0 X78.926 Y75.858
G0 X78.969 Y76.356
G1 X78.444 Y76.493 E50.46511
G1 X77.949 Y76.716 E50.49219
G1 X77.5 Y77.02 E50.51925
G1 X77.107 Y77.395 E50.54635
G1 X76.785 Y77.832 E50.57343
G1 X76.541 Y78.317 E50.60051
G1 X76.382 Y78.836 E50.6276
G1 X76.312 Y79.374 E50.65466
G1 X76.336 Y79.917 E50.68178
G1 X76.45 Y80.448 E50.70887
G1 X76.653 Y80.951 E50.73594
G1 X76.937 Y81.413 E50.76299
G1 X77.296 Y81.821 E50.79011
G1 X77.718 Y82.162 E50.81717
G1 X78.192 Y82.427 E50.84427
G1 X78.703 Y82.608 E50.87131
G1 X79.235 Y82.699 E50.89824
G1 X79.51 Y82.71 E50.91197
G1 X79.786 Y82.699 E50.92575
G1 X80.317 Y82.608 E50.95263
G1 X80.829 Y82.427 E50.97972
G1 X81.302 Y82.162 E51.00677
G1 X81.725 Y81.821 E51.03388
G1 X82.083 Y81.413 E51.06096
G1 X82.368 Y80.951 E51.08804
